packages/elements/bolt-icon/src/svgs/user.svg

<svg enable-background="new 0 0 32 32" viewBox="0 0 32 32" xmlns="http://www.w3.org/2000/svg"><path clip-rule="evenodd" d="m26.2 24.2c-1.4-2.3-3.6-4.1-6.2-5 1.9-1.3 3.1-3.4 3.1-5.8 0-3.9-3.2-7.1-7.1-7.1s-7.1 3.2-7.1 7.1c0 2.4 1.2 4.6 3.1 5.8-2.6.9-4.8 2.7-6.2 5-1.8-2.3-2.9-5.1-2.9-8.2 0-7.2 5.9-13.1 13.1-13.1s13.1 5.9 13.1 13.1c0 3.1-1.1 5.9-2.9 8.2m-14.4-10.9c0-2.3 1.9-4.2 4.2-4.2s4.2 1.9 4.2 4.2-1.9 4.2-4.2 4.2-4.2-1.9-4.2-4.2m4.2 15.8c-3.1 0-5.9-1-8.1-2.8 1.5-2.9 4.6-4.9 8.1-4.9s6.6 2 8.1 4.9c-2.2 1.7-5 2.8-8.1 2.8m0-29.1c-8.8 0-16 7.2-16 16 0 4.3 1.7 8.2 4.5 11.1.7.8 1.6 1.5 2.5 2.1 2.5 1.8 5.7 2.8 9 2.8s6.5-1 9-2.8c.9-.6 1.8-1.3 2.5-2.1 2.8-2.9 4.5-6.8 4.5-11.1 0-8.8-7.2-16-16-16" fill="#151619" fill-rule="evenodd"/></svg>

<?xml version="1.0" encoding="utf-8"?>
<!-- Generator: Adobe Illustrator 25.2.0, SVG Export Plug-In . SVG Version: 6.00 Build 0)  -->
<svg version="1.1" id="Layer_1" xmlns="http://www.w3.org/2000/svg" xmlns:xlink="http://www.w3.org/1999/xlink" x="0px" y="0px"
	 viewBox="0 0 32 32" style="enable-background:new 0 0 32 32;" xml:space="preserve">
<style type="text/css">
	.st0{fill-rule:evenodd;clip-rule:evenodd;fill:#151619;}
</style>
<g>
	<path class="st0" d="M26.2,24.2c-1.4-2.3-3.6-4.1-6.2-5c1.9-1.3,3.1-3.4,3.1-5.8c0-3.9-3.2-7.1-7.1-7.1c-3.9,0-7.1,3.2-7.1,7.1
		c0,2.4,1.2,4.6,3.1,5.8c-2.6,0.9-4.8,2.7-6.2,5C4,21.9,2.9,19.1,2.9,16C2.9,8.8,8.8,2.9,16,2.9c7.2,0,13.1,5.9,13.1,13.1
		C29.1,19.1,28,21.9,26.2,24.2 M11.8,13.3c0-2.3,1.9-4.2,4.2-4.2c2.3,0,4.2,1.9,4.2,4.2c0,2.3-1.9,4.2-4.2,4.2
		C13.7,17.5,11.8,15.6,11.8,13.3 M16,29.1c-3.1,0-5.9-1-8.1-2.8c1.5-2.9,4.6-4.9,8.1-4.9c3.5,0,6.6,2,8.1,4.9
		C21.9,28,19.1,29.1,16,29.1 M16,0C7.2,0,0,7.2,0,16c0,4.3,1.7,8.2,4.5,11.1c0.7,0.8,1.6,1.5,2.5,2.1C9.5,31,12.7,32,16,32
		c3.3,0,6.5-1,9-2.8c0.9-0.6,1.8-1.3,2.5-2.1C30.3,24.2,32,20.3,32,16C32,7.2,24.8,0,16,0"/>
</g>
</svg>
